azure-icons/Time-Series-Insights-Event-Sources.svg

<svg xmlns="http://www.w3.org/2000/svg" viewBox="0 0 18 18"><defs><linearGradient id="a" x1="9.03" y1="13.38" x2="9.03" y2="4.63" gradientUnits="userSpaceOnUse"><stop offset="0" stop-color="#198ab3"/><stop offset=".4" stop-color="#25aed3"/><stop offset=".78" stop-color="#2fcaec"/><stop offset="1" stop-color="#32d4f5"/></linearGradient></defs><rect x="4.65" y="4.63" width="8.75" height="8.75" rx=".41" fill="url(#a)"/><path d="M11.78 12.18l4.38-3.07a.13.13 0 000-.22l-4.38-3.06a.13.13 0 00-.21.11V7.7H4.65v2.6h6.92v1.77a.14.14 0 00.21.11z" fill="#c3f1ff"/><path d="M17 17.6H1a.52.52 0 01-.52-.52V.92A.52.52 0 011 .4h16a.52.52 0 01.52.52V6a.26.26 0 01-.41.22l-1-.7A.27.27 0 0116 5.3V2H2.06v14h13.88v-3.2a.26.26 0 01.11-.21l1-.73a.26.26 0 01.41.22v5a.52.52 0 01-.46.52z" fill="#949494"/><path d="M15.94 2v3.25a.27.27 0 00.11.22l1 .7A.26.26 0 0017.5 6V2zM15.94 16v-3.25a.25.25 0 01.11-.21l1-.71a.27.27 0 01.41.22v4z" fill="#767676"/></svg>

<svg id="a978b06d-4c0e-4630-bb2f-1c95b82750dc" xmlns="http://www.w3.org/2000/svg" width="18" height="18" viewBox="0 0 18 18"><defs><linearGradient id="be18c16e-547a-4c25-9f22-b3a89153c17b" x1="9.03" y1="13.38" x2="9.03" y2="4.63" gradientUnits="userSpaceOnUse"><stop offset="0" stop-color="#198ab3" /><stop offset="0.4" stop-color="#25aed3" /><stop offset="0.78" stop-color="#2fcaec" /><stop offset="1" stop-color="#32d4f5" /></linearGradient></defs><rect x="4.65" y="4.63" width="8.75" height="8.75" rx="0.41" fill="url(#be18c16e-547a-4c25-9f22-b3a89153c17b)" /><path d="M7.31,12.53Z" fill="#fff" /><path d="M11.78,12.18l4.38-3.07a.13.13,0,0,0,0-.22L11.78,5.83a.13.13,0,0,0-.21.11V7.7H4.65v2.6h6.92v1.77A.14.14,0,0,0,11.78,12.18Z" fill="#c3f1ff" /><path d="M17,17.6H1a.52.52,0,0,1-.52-.52V.92A.52.52,0,0,1,1,.4H17a.52.52,0,0,1,.52.52V6a.26.26,0,0,1-.41.22l-1-.7a.27.27,0,0,1-.11-.22V2H2.06V16H15.94V12.8a.26.26,0,0,1,.11-.21l1-.73a.26.26,0,0,1,.41.22v5A.52.52,0,0,1,17,17.6Z" fill="#949494" /><path d="M15.94,2V5.25a.27.27,0,0,0,.11.22l1,.7A.26.26,0,0,0,17.5,6V2Z" fill="#767676" /><path d="M15.94,16V12.75a.25.25,0,0,1,.11-.21l1-.71a.27.27,0,0,1,.41.22v4Z" fill="#767676" /></svg>
